X: 28
T: Ragg
%R: jig
B: Daniel Wright "Wright's Compleat Collection of Celebrated Country Dances" 1740 p.14
S: http://library.efdss.org/cgi-bin/dancebooks.cgi
Z: 2014 John Chambers <jc:trillian.mit.edu>
M: 6/8
L: 1/8
K: D
% - - - - - - - - - - - - - - - - - - - - - - - - -
g |\
f2A (Ac)A | (B/c/d)B G2g | f2A AcA | d3 g2g |\
f2A AcA | (B/c/d)B G2g | afd gec | d3 g2 |]
g |\
f2g afd | efg gec | f2a afd | f3 g3 |\
fga afd | efg gec | (f/g/a)f (e/f/g)e | d3 f2 |]
% - - - - - - - - - - - - - - - - - - - - - - - - -
%%begintext align
%% Cross over down one Cu. and turn hands then
%% down the next Cu. the same Way and turn
%% Hands the Wo. turns the upper Man with one
%% Hand, her Partner with the other, the Man does
%% the like at the same time, only at the last
%% Dancers with both Hands turn.
%%endtext
% - - - - - - - - - - - - - - - - - - - - - - - - -
%%sep 2 4 300
